src/components/stable/gux-icon/icons/cjv-webchat-submitted.svg

<svg viewBox="0 0 40 40" version="1.1" xmlns="http://www.w3.org/2000/svg" xmlns:xlink="http://www.w3.org/1999/xlink">
    <title>Webchat Submitted</title>
    <g stroke="none" stroke-width="1" fill="none" fill-rule="evenodd">
        <g id="cjv-webchat-submitted">
            <circle id="Oval" fill="#FFFFFF" cx="20" cy="20" r="20"/>
            <g fill="#444A52">
                <path d="M20,40 C31.0457,40 40,31.0457 40,20 C40,8.9543 31.0457,0 20,0 C8.9543,0 0,8.9543 0,20 C0,31.0457 8.9543,40 20,40 Z M20.0155,29.5 C26.607,29.5 32,25.15 32,19.75 C32,14.35 26.607,10 20.0155,10 C13.424,10 8.031,14.35 8.031,19.75 C8.031,22.075 9.0048,24.25 10.6526,25.9 C10.1283,27.55 9.3044,29.125 8.1059,30.4 C8.031,30.475 7.9561,30.625 8.031,30.775 C8.1059,30.925 8.2557,31 8.4055,31 C10.8024,31 13.1244,30.1 14.997,28.6 C16.57,29.2 18.2927,29.5 20.0155,29.5 Z" id="Shape"/>
                <path d="M19,15 C19,14.4477 19.4477,14 20,14 C20.5523,14 21,14.4477 21,15 L21,24 C21,24.5523 20.5523,25 20,25 C19.4477,25 19,24.5523 19,24 L19,15 Z" id="Path" fill-rule="nonzero"/>
                <path d="M19.2929,14.2929 C19.6834,13.9024 20.3166,13.9024 20.7071,14.2929 L23.7071,17.2929 C24.0976,17.6834 24.0976,18.3166 23.7071,18.7071 C23.3166,19.0976 22.6834,19.0976 22.2929,18.7071 L20,16.4142 L17.7071,18.7071 C17.3166,19.0976 16.6834,19.0976 16.2929,18.7071 C15.9024,18.3166 15.9024,17.6834 16.2929,17.2929 L19.2929,14.2929 Z" id="Path"/>
            </g>
        </g>
    </g>
</svg>

<svg viewBox="0 0 40 40" xmlns="http://www.w3.org/2000/svg"><g fill="none" fill-rule="evenodd"><circle fill="#FFF" cx="20" cy="20" r="20"/><g fill="#444A52"><path d="M20 40c11.046 0 20-8.954 20-20S31.046 0 20 0 0 8.954 0 20s8.954 20 20 20zm.015-10.5C26.607 29.5 32 25.15 32 19.75S26.607 10 20.015 10c-6.591 0-11.984 4.35-11.984 9.75 0 2.325.974 4.5 2.622 6.15-.525 1.65-1.349 3.225-2.547 4.5-.075.075-.15.225-.075.375s.225.225.374.225c2.397 0 4.72-.9 6.592-2.4 1.573.6 3.296.9 5.018.9z"/><path d="M19 15a1 1 0 112 0v9a1 1 0 11-2 0v-9z" fill-rule="nonzero"/><path d="M19.293 14.293a1 1 0 011.414 0l3 3a1 1 0 01-1.414 1.414L20 16.414l-2.293 2.293a1 1 0 01-1.414-1.414l3-3z"/></g></g></svg>
